client/public/img/killfeed/rsh12_killfeed.svg

<?xml version="1.0" encoding="UTF-8" standalone="no"?>
<svg
   width="69.988716"
   height="16.000006"
   viewBox="0 0 69.988716 16.000006"
   fill="none"
   version="1.1"
   id="svg11"
   xmlns="http://www.w3.org/2000/svg"
   xmlns:svg="http://www.w3.org/2000/svg">
  <path
     d="m 24.435988,3.2447353 -0.0137,2.8101658 0.625535,0.010229 0.902605,1.3264511 H 42.94815 V 1.8123053 H 25.923032 L 25.08592,3.2622435 Z"
     fill="#d9d9d9"
     id="path1"
     style="stroke-width:0.999895" />
  <path
     d="M 6.0413534,0 5.7197871,1.9e-5 5.7002692,1.1705625 5.176074,2.865805 5.2159199,3.7626911 C 5.2416472,4.3520394 4.5517094,5.2858116 3.9048671,5.444525 l 0.064653,2.3491341 10.9060689,-0.00592 0.0023,-7.15771266 -3.99e-4,-0.27041769 -0.900906,0.00687 -7.6919752,-1.3198e-4 z m 1.2835157,1.3635223 1.3993935,-0.00474 -0.00773,-0.2938893 0.00588,-0.1318762 4.4425554,0.0054 0.0049,0.4325447 0.715925,-0.00735 0.0339,4.6317452 -6.5851211,-0.014498 z"
     fill="#d9d9d9"
     id="path2"
     style="stroke-width:0.999895" />
  <path
     d="m 7.8248967,1.8552708 5.5935443,0.012279 0.015,3.6307199 -5.6222418,-0.015928 z"
     fill="#d9d9d9"
     id="path3"
     style="stroke-width:0.999895" />
  <path
     d="m 20.946253,0.00390579 -0.941001,0.0042649 0.0098,0.33667626 -4.634415,0.0109928 -0.0024,7.22105205 0.521545,-0.1853606 1.112184,-0.021798 0.0052,-0.5607213 0.495748,-0.4564122 6.411628,-0.00189 0.012,-3.620441 -0.933402,-1.2906349 -0.410157,0.00332 z m -4.837393,1.61500971 2.138176,0.00725 0.480949,0.57318 C 18.624796,2.2787775 18.536305,2.3917053 18.49761,2.500134 L 16.245045,2.498714 C 16.127658,2.501084 16.10976,2.411243 16.113659,2.3492897 Z m 2.778109,-0.00664 2.348454,-0.00237 0.500348,0.4430736 -2.444145,4.799e-4 z m 0.352063,0.6547915 h 3.120473 c 0.302669,0 0.546243,0.2436245 0.546243,0.5462728 v 0.4718406 c 0,0.3026583 -0.243574,0.5462728 -0.546243,0.5462728 h -3.120473 c -0.302568,0 -0.546243,-0.2436145 -0.546243,-0.5462728 V 2.8133405 c 0,-0.3026483 0.243675,-0.5462728 0.546243,-0.5462735 z"
     fill="#d9d9d9"
     id="path4"
     style="stroke-width:0.999895" />
  <path
     d="m 22.156327,2.7536167 h -2.738714 c -0.136585,0 -0.247274,0.1106784 -0.247274,0.2472142 v 0.080621 c 0,0.1365357 0.110689,0.2472141 0.247274,0.2472141 h 2.738714 c 0.136485,0 0.247174,-0.1106784 0.247174,-0.2472141 v -0.080621 c 0,-0.1365358 -0.110689,-0.2472142 -0.247174,-0.2472142 z"
     fill="#d9d9d9"
     id="path5"
     style="stroke-width:0.999895" />
  <path
     d="M 8.1105368,9.7750217 7.8346257,10.36509 c 0.1858806,0.0277 0.3763706,0.08719 0.4198161,0.119687 0.1547738,0.107489 0.7846378,0.19188 1.1588586,0.105689 l 2.6721806,-0.498048 c 0.9575,-0.2770905 1.077287,-0.9713079 1.109784,-1.7952016 l -0.502548,-0.00512 c 0.0052,0.4306549 -0.0442,1.1428504 -0.793917,1.3238814 L 9.522729,10.067621 C 8.4597203,10.229904 8.3852981,9.946834 8.1105368,9.7750217 Z"
     fill="#d9d9d9"
     id="path6"
     style="stroke-width:0.999895" />
  <path
     d="M 9.4851129,8.2876074 8.8296415,8.2842874 C 8.8701975,8.6585183 8.9867751,9.5915306 9.9447049,9.7749914 10.419355,9.8462434 10.452852,9.4117094 10.108788,9.2946617 9.7944209,9.2037915 9.4208797,8.7750064 9.4851129,8.2876074 Z"
     fill="#d9d9d9"
     id="path7"
     style="stroke-width:0.999895" />
  <path
     d="M 3.409069,5.5228568 0.98193311,5.9775792 C -0.15301007,6.1768584 0.39616344,7.0123609 0.90758091,7.0852333 1.2967201,7.1673747 2.5837654,7.8129671 2.0117353,8.9799549 0.78494371,10.93823 0.04334837,12.766738 4.7685938e-4,15.255478 -0.00885814,15.551947 0.11695267,15.942606 0.54680667,15.956505 l 3.56562873,0.0435 c 0.7298236,-0.0043 1.0050848,-0.126387 1.155509,-0.865409 l 0.9548601,-4.380242 0.9171039,-0.04389 1.0838666,-2.4213168 -4.7322146,-1.3e-4 z"
     fill="#d9d9d9"
     id="path8"
     style="stroke-width:0.999895" />
  <path
     d="M 1.6248458,5.2049901 C 1.4138879,5.3678231 1.3250672,5.2748428 1.2875911,5.2330872 1.2481152,5.1943812 1.1766427,5.0786533 1.384371,4.9257293 2.0074257,4.4633677 2.4273218,4.3629483 3.2098599,4.3822062 L 4.4811768,3.323867 4.6514889,3.4805706 4.5703274,3.9125054 4.6711769,4.0168245 C 4.4945154,4.4928347 4.1431322,4.9546863 3.2581748,5.1179192 L 3.1491562,4.976654 C 2.6578177,5.0112504 2.0713191,4.9700147 1.6248458,5.2049901 Z"
     fill="#d9d9d9"
     id="path9"
     style="stroke-width:0.999895" />
  <path
     d="M 42.909654,3.5269758 H 69.988719 V 5.7835695 H 42.909654 Z"
     fill="url(#paint0_linear_2620_513)"
     id="path10"
     style="fill:url(#paint0_linear_2620_513);stroke-width:0.999895" />
  <defs
     id="defs11">
    <linearGradient
       id="paint0_linear_2620_513"
       x1="70.256302"
       y1="4.7338901"
       x2="43.1744"
       y2="4.7338901"
       gradientUnits="userSpaceOnUse"
       gradientTransform="matrix(0.99989532,0,0,0.99989532,-0.26022685,-0.07811682)">
      <stop
         stop-color="#D9D9D9"
         id="stop10" />
      <stop
         offset="1"
         stop-color="#D9D9D9"
         stop-opacity="0"
         id="stop11" />
    </linearGradient>
  </defs>
</svg>

<svg xmlns="http://www.w3.org/2000/svg" width="69.989" height="16" fill="none"><path fill="#d9d9d9" d="m24.436 3.245-.014 2.81.626.01.902 1.327h16.998v-5.58H25.923l-.837 1.45ZM6.041 0H5.72L5.7 1.17l-.524 1.696.04.897c.026.589-.664 1.523-1.311 1.682l.065 2.349 10.906-.006.002-7.158V.36l-.901.006H6.285zm1.284 1.364 1.4-.005-.008-.294.005-.132 4.443.005.005.433.716-.007.034 4.631-6.585-.014z" style="stroke-width:.999895"/><path fill="#d9d9d9" d="m7.825 1.855 5.593.013.015 3.63-5.622-.016zM20.946.004l-.94.004.01.337-4.635.01-.003 7.222.522-.185 1.112-.022.005-.561.496-.456 6.412-.002.012-3.62-.934-1.291-.41.003zM16.11 1.619l2.138.007.481.573a.7.7 0 0 0-.23.301h-2.254c-.117.002-.135-.088-.131-.15Zm2.778-.007 2.348-.002.5.443h-2.443zm.352.655h3.12c.303 0 .547.244.547.546v.472a.545.545 0 0 1-.546.546H19.24a.545.545 0 0 1-.546-.546v-.472c0-.302.243-.546.546-.546" style="stroke-width:.999895"/><path fill="#d9d9d9" d="M22.156 2.754h-2.738A.247.247 0 0 0 19.17 3v.08c0 .137.111.248.248.248h2.738a.25.25 0 0 0 .248-.248V3a.247.247 0 0 0-.248-.247M8.11 9.775l-.275.59c.186.028.376.087.42.12.154.107.784.192 1.158.105l2.672-.498c.958-.277 1.078-.97 1.11-1.795l-.502-.005c.005.43-.044 1.143-.794 1.324l-2.376.452c-1.063.162-1.138-.121-1.412-.293" style="stroke-width:.999895"/><path fill="#d9d9d9" d="m9.485 8.288-.655-.004c.04.375.157 1.308 1.115 1.491.474.071.508-.363.164-.48-.315-.091-.688-.52-.624-1.007M3.41 5.523l-2.428.455C-.153 6.177.396 7.012.908 7.085c.389.082 1.676.728 1.104 1.895C.785 10.938.043 12.767 0 15.255c-.009.297.117.688.547.702L4.112 16c.73-.004 1.006-.126 1.156-.865l.955-4.38.917-.045 1.084-2.42-4.732-.001zm-1.785-.318c-.211.163-.3.07-.337.028-.04-.039-.111-.154.096-.307.623-.463 1.043-.563 1.826-.544l1.27-1.058.17.157-.08.432.1.104c-.176.476-.528.938-1.413 1.1l-.109-.14c-.491.034-1.078-.007-1.524.228" style="stroke-width:.999895"/><path fill="url(#a)" d="M42.91 3.527h27.079v2.257h-27.08Z" style="fill:url(#a);stroke-width:.999895"/><defs><linearGradient id="a" x1="70.256" x2="43.174" y1="4.734" y2="4.734" gradientTransform="translate(-.26 -.078)scale(.9999)" gradientUnits="userSpaceOnUse"><stop stop-color="#D9D9D9"/><stop offset="1" stop-color="#D9D9D9" stop-opacity="0"/></linearGradient></defs></svg>
